X: 341
T:Vray dieu d'amour
N: Derived from Jos2736-Vray_dieu_damour.krn
C: Josquin des Prez
%%abc-version 2.0
%%abcx-abcm2ps-target-version 5.9.1 (29 Sep 2008)
%%abc-creator hum2abc beta
%%abcx-conversion-date 2019/02/12 16:15:54
%%abc-edited-by Jesse Rodin
%%abc-edited-by Chris Gage 06-08-2012
%%abcx-initial-encoding-date 2012/06/10/
%%humdrum-veritas 907029622
%%humdrum-veritas-data 2635324811
%%linebreak <none>
%%barnumbers 0
L: 1/4
M: 2/1
Q: 1/2=120
V: 1 clef=treble
V: 2 clef=treble
V: 3 clef=treble
K: C
[V:1] G4G2G2 | 
[V:2] z8 | 
[V:3] z8 | 
[V:1] c4z2d2 | 
[V:2] z8 | 
[V:3] z4G4 | 
[V:1] d2d2edef | 
[V:2] z8 | 
[V:3] G2G2c4 | 
[V:1] g8- | 
[V:2] G4G2G2 | 
[V:3] z2d2d2d2 | 
[V:1] g4z2e2 | 
[V:2] c8 | 
[V:3] e4z2c2 | 
[V:1] e2f2e2dc | 
[V:2] z8 | 
[V:3] c2d2c2BA | 
[V:1] BAd4c2- | 
[V:2] z4z2c2 | 
[V:3] G2F2G2FE | 
[V:1] c2B2c4 | 
[V:2] d2d2e4 | 
[V:3] D4C4 | 
[V:1] z2c2c2B2 | 
[V:2] z2e2e2f2 | 
[V:3] z2C2C2D2 | 
[V:1] c2g4f2 | 
[V:2] e2dcBAd2- | 
[V:3] CDEFGABG | 
[V:1] e2dcd4 | 
[V:2] d2c4B2 | 
[V:3] c2BAG2G2 | 
[V:1] c4z2G2 | 
[V:2] c8 | 
[V:3] C8 | 
[V:1] G2G2c4 | 
[V:2] z8 | 
[V:3] z2C2C2C2 | 
[V:1] z2c2d2d2 | 
[V:2] z8 | 
[V:3] F4z2F2 | 
[V:1] e4d2g2- | 
[V:2] z8 | 
[V:3] G2G2G3A | 
[V:1] g2fed4 | 
[V:2] G4G2G2 | 
[V:3] BGc4B2 | 
[V:1] c3B/A/G2A2- | 
[V:2] c8- | 
[V:3] c2F2E2F2- | 
[V:1] AGAG/F/G2A2- | 
[V:2] c8 | 
[V:3] FEFE/D/E2F2- | 
[V:1] AGc4B2 | 
[V:2] z2c2d2d2 | 
[V:3] FCE2D4 | 
[V:1] c4B2c2 | 
[V:2] e8- | 
[V:3] CDEFG2A2 | 
[V:1] B2c3BcB/A/ | 
[V:2] e8 | 
[V:3] G2A3GAG/F/ | 
[V:1] G3AB2c2- | 
[V:2] z2e2e4 | 
[V:3] E2G4FE | 
[V:1] c2B2c4 | 
[V:2] f4e4 | 
[V:3] D4C4 | 
[V:1] z2c2c2B2 | 
[V:2] z2e2e2f2 | 
[V:3] z2C2C2D2 | 
[V:1] c2g4f2 | 
[V:2] e2dcBAd2- | 
[V:3] CDEFGABG | 
[V:1] e2dcd4 | 
[V:2] d2c4B2 | 
[V:3] c2BAG2G2 | 
[V:1] c8- | 
[V:2] c2BAG2AG | 
[V:3] C3DECF2 | 
[V:1] c8 | 
[V:2] AGAGAGAG/F/ | 
[V:3] E2F3EFE/D/ | 
[V:1] g4g3f | 
[V:2] E4z2g2 | 
[V:3] C4z4 | 
[V:1] e3dc3B | 
[V:2] g3fe3d | 
[V:3] c2c3BA2- | 
[V:1] A4z2d2 | 
[V:2] c3BA4 | 
[V:3] AGF3ED2 | 
[V:1] d2d2e3d | 
[V:2] z2B2c3B | 
[V:3] z2D2C3C | 
[V:1] c2B2A4 | 
[V:2] A2G2G2^F2 | 
[V:3] F2G2D2D2 | 
[V:1] G2g2g3f | 
[V:2] G4z2g2 | 
[V:3] G4z4 | 
[V:1] e3dc3B | 
[V:2] g3fe3d | 
[V:3] c2c3BA2- | 
[V:1] A4z2d2 | 
[V:2] c3BA4 | 
[V:3] AGF3ED2 | 
[V:1] d2d2e3d | 
[V:2] z2B2c3B | 
[V:3] z2D2C3D | 
[V:1] c3BA2A2 | 
[V:2] A2G4^F2 | 
[V:3] F2G2D2D2 | 
[V:1] G2d2e3d | 
[V:2] G2B2c3B | 
[V:3] G3GC3D | 
[V:1] c3BA4 | 
[V:2] A2G4^F2 | 
[V:3] F2G2D2D2 | 
[V:1] G8 | 
[V:2] G8 | 
[V:3] G4z2G2 | 
[V:1] z2G2c2d2 | 
[V:2] z4z2G2 | 
[V:3] c2d2e2f2 | 
[V:1] e2f2e2d2 | 
[V:2] c2d2e2f2 | 
[V:3] eg2f/e/dccB | 
[V:1] g3f/e/dcf2 | 
[V:2] e3d/c/BAd2- | 
[V:3] c2BcdcBA | 
[V:1] e2dcd4 | 
[V:2] dcc4B2 | 
[V:3] c2BAG2G2 | 
[V:1] c8 |]  
[V:2] c8 |]  
[V:3] C8 |]  



